!!!!SEGMENT: Wil2011-Verbum_bonum.krn
!!!id: Wil2011
!!!AGN: Motet
!!!SCT: Motetti de la corona, liber quatro (1519)
!!!voices: 6
!!!COM: Adrian Willaert
!!!OTL: Verbum bonum
**kern	**text	**kern	**text	**kern	**text	**kern	**text	**kern	**text	**kern	**text
*part6	*part6	*part5	*part5	*part4	*part4	*part3	*part3	*part2	*part2	*part1	*part1
*staff6	*staff6	*staff5	*staff5	*staff4	*staff4	*staff3	*staff3	*staff2	*staff2	*staff1	*staff1
*I"Bassus I	*	*I"Bassus II	*	*I"Tenor	*	*I"Altus II	*	*I"Altus I	*	*I"Superius	*
*I'B. I	*	*I'B. II	*	*I'T	*	*I'A. II	*	*I'A. I	*	*I'S	*
*clefF4	*	*clefGv2	*	*clefGv2	*	*clefGv2	*	*clefGv2	*	*clefG2	*
*k[]	*	*k[]	*	*k[]	*	*k[]	*	*k[]	*	*k[]	*
*C:	*	*C:	*	*C:	*	*C:	*	*C:	*	*C:	*
*M2/1	*	*M2/1	*	*M2/1	*	*M2/1	*	*M2/1	*	*M2/1	*
*met(C)	*	*met(C)	*	*met(C)	*	*met(C)	*	*met(C)	*	*met(C)	*
!!section: Prima pars: Verbum bonum
!!!OMD: Prima pars: Verbum bonum
=1	=1	=1	=1	=1	=1	=1	=1	=1	=1	=1	=1
!	!	!	!	!LO:TX:a:t=Canon&colon; tenor/altus II at the fourth	!	!	!	!	!	!	!
1r	.	0r	.	1D	Ver-	0r	.	0r	.	0r	.
1GG	Ver-	.	.	1G	-bum	.	.	.	.	.	.
=2	=2	=2	=2	=2	=2	=2	=2	=2	=2	=2	=2
1D	-bum	0r	.	1A	bo-	1r	.	0r	.	0r	.
1E	bo-	.	.	1G	-num	1G	Ver-	.	.	.	.
=3	=3	=3	=3	=3	=3	=3	=3	=3	=3	=3	=3
1C	-num	1C	Ver-	0r	.	1c	-bum	0r	.	0r	.
1r	.	1G	-bum	.	.	1d	bo-	.	.	.	.
=4	=4	=4	=4	=4	=4	=4	=4	=4	=4	=4	=4
0r	.	1A	bo-	0r	.	1c	-num	1r	.	1c	Ver-
.	.	2G	.	.	.	1r	.	1G	Ver-	1g	-bum
.	.	2E	.	.	.	.	.	.	.	.	.
=5	=5	=5	=5	=5	=5	=5	=5	=5	=5	=5	=5
1r	.	1F	.	1r	.	0r	.	1d	-bum	1.a	bo-
1C	et	1E	-num	1c	et	.	.	1e	bo-	.	.
.	.	.	.	.	.	.	.	.	.	[2g	.
=6	=6	=6	=6	=6	=6	=6	=6	=6	=6	=6	=6
1D	su-	1r	.	2B	su-	0r	.	2.d	.	2g]	.
.	.	.	.	2.A	-a-	.	.	.	.	2f	.
.	.	.	.	.	.	.	.	4c	.	.	.
2E	-a-	2r	.	.	.	.	.	2B	.	1g	-num
.	.	.	.	4G	.	.	.	.	.	.	.
2C	.	2c	et	[2G	.	.	.	2e	.	.	.
=7	=7	=7	=7	=7	=7	=7	=7	=7	=7	=7	=7
1D	.	2B	su-	2G]	.	1f	et	1d	-num	0r	.
.	.	2.A	-a-	2F#i	.	.	.	.	.	.	.
2C	.	.	.	1G	-ve,	2e	su-	1r	.	.	.
.	.	4G	.	.	.	.	.	.	.	.	.
2BB	.	[2G	.	.	.	[2d	-a-	.	.	.	.
=8	=8	=8	=8	=8	=8	=8	=8	=8	=8	=8	=8
1AA	.	2G]	.	0r	.	4d]	.	1r	.	0r	.
.	.	.	.	.	.	4c	.	.	.	.	.
.	.	2F#i	.	.	.	1c	.	.	.	.	.
2GG	-ve,	1G	-ve,	.	.	.	.	1g	et	.	.
2G	per-	.	.	.	.	2B	.	.	.	.	.
=9	=9	=9	=9	=9	=9	=9	=9	=9	=9	=9	=9
2A	-so-	2r	.	0r	.	1c	-ve,	2f	su-	1cc	et
1G	-ne-	2C	per-	.	.	.	.	2.e	-a-	.	.
.	.	2G	-so-	.	.	1r	.	.	.	2b	su-
.	.	.	.	.	.	.	.	4d	.	.	.
2F	.	2A	-ne-	.	.	.	.	[2d	.	[2a	-a-
=10	=10	=10	=10	=10	=10	=10	=10	=10	=10	=10	=10
1E	.	2B	.	1r	.	0r	.	2d]	.	4a]	.
.	.	.	.	.	.	.	.	.	.	4g	.
.	.	2G	.	.	.	.	.	2c#i	.	1g	.
1D	.	1A	.	1A	Per-	.	.	[1d	-ve,	.	.
.	.	.	.	.	.	.	.	.	.	2f#i	.
=11	=11	=11	=11	=11	=11	=11	=11	=11	=11	=11	=11
2GG	-mus	1G	.	1B	-so-	0r	.	0d]	.	1g	-ve,
1G	il-	.	.	.	.	.	.	.	.	.	.
.	.	1D	-mus	1A	-ne-	.	.	.	.	2r	.
2F#i	.	.	.	.	.	.	.	.	.	2a	Per-
=12	=12	=12	=12	=12	=12	=12	=12	=12	=12	=12	=12
2G	.	2r	.	1G	-mus	1d	Per-	2d	Per-	2b	-so-
2GG	-lud	1G	il-	.	.	.	.	2d	-so-	2b	-ne-
1C	a-	.	.	2r	.	1e	-so-	2c	-ne-	1g	-mus
.	.	2G	.	2E	il-	.	.	2c	-mus	.	.
=13	=13	=13	=13	=13	=13	=13	=13	=13	=13	=13	=13
2D	.	2F	.	2F	.	1d	-ne-	2A	il-	1r	.
2GG	.	2E	-lud	2G	-lud	.	.	2B	-lud	.	.
1AA	-ve,	[1A	A-	1E	A-	1c	-mus	4c	A-	2r	.
.	.	.	.	.	.	.	.	4B	.	.	.
.	.	.	.	.	.	.	.	4A	.	2e	il-
.	.	.	.	.	.	.	.	4G	.	.	.
=14	=14	=14	=14	=14	=14	=14	=14	=14	=14	=14	=14
2r	.	2A]	.	1D	-ve,	2r	.	1F	-ve,	2.f	.
1D	a-	2F	.	.	.	2A	il-	.	.	.	.
.	.	.	.	.	.	.	.	.	.	4e	.
.	.	1G	.	1r	.	2B	.	1r	.	2d	.
2C	.	.	.	.	.	2c	-lud	.	.	2e	-lud
=15	=15	=15	=15	=15	=15	=15	=15	=15	=15	=15	=15
1D	-ve,	2F	-ve,	0r	.	1A	A-	2d	Per	1f	A-
.	.	2D	Per	.	.	.	.	2d	quod	.	.
1r	.	1E	quod	.	.	1G	-ve,	2B	Chri-	1g	-ve,
.	.	.	.	.	.	.	.	2c	-sti	.	.
=16	=16	=16	=16	=16	=16	=16	=16	=16	=16	=16	=16
2r	.	2.D	Chri-	1r	.	0r	.	1.d	fit	1.f	Per
2D	Per	.	.	.	.	.	.	.	.	.	.
.	.	4E	.	.	.	.	.	.	.	.	.
2D	quod	2F	.	2r	.	.	.	.	.	.	.
2BB	Chri-	2G	.	2G	Per	.	.	2d	con-	2d	quod
=17	=17	=17	=17	=17	=17	=17	=17	=17	=17	=17	=17
2C	-sti	2E	-sti	2G	quod	0r	.	1e	-cla-	1g	Chri-
2C	fit	2c	fit	2E	Chri-	.	.	.	.	.	.
1D	con-	2.A	con-	2F	-sti	.	.	1d	-ve	2f	-sti
.	.	.	.	2F	fit	.	.	.	.	[2a	fit
.	.	4B	.	.	.	.	.	.	.	.	.
=18	=18	=18	=18	=18	=18	=18	=18	=18	=18	=18	=18
2.C	-cla-	1c	-cla-	1G	con-	2r	.	2r	.	4a]	.
.	.	.	.	.	.	.	.	.	.	4g	.
.	.	.	.	.	.	2c	Per	1e	Vir-	1g	.
4BB	.	.	.	.	.	.	.	.	.	.	.
1AA	-ve	1C	-ve	1A	-cla-	2c	quod	.	.	.	.
.	.	.	.	.	.	2A	Chri-	4d	.	2f#i	con-
.	.	.	.	.	.	.	.	4c	.	.	.
=19	=19	=19	=19	=19	=19	=19	=19	=19	=19	=19	=19
1r	.	2r	.	1G	-ve	2B	-sti	1d	-go,	2g	-cla-
.	.	2.G	Vir-	.	.	2B	fit	.	.	2b	.
1AA	Vir-	.	.	2r	.	1c	con-	1r	.	1a	-ve
.	.	4F#i	.	.	.	.	.	.	.	.	.
.	.	4F#i	.	2A	Vir-	.	.	.	.	.	.
.	.	4E	.	.	.	.	.	.	.	.	.
=20	=20	=20	=20	=20	=20	=20	=20	=20	=20	=20	=20
1GG	-go,	2G	.	1B	-go,	1d	-cla-	1r	.	0r	.
.	.	2D	-go,	.	.	.	.	.	.	.	.
2C	ma-	1E	ma-	2A	ma-	1c	-ve	2r	.	.	.
2E	.	.	.	2G	-ter	.	.	2c	ma-	.	.
=21	=21	=21	=21	=21	=21	=21	=21	=21	=21	=21	=21
1D	.	1F	-ter	2G	fi-	2r	.	2B	-ter	0r	.
.	.	.	.	2F#i	-li-	2d	Vir-	2.A	fi-	.	.
1C	-ter	2.E	fi-	1G	-a.	1e	-go,	.	.	.	.
.	.	.	.	.	.	.	.	4G	.	.	.
.	.	.	.	.	.	.	.	[2G	-li-	.	.
.	.	4F	.	.	.	.	.	.	.	.	.
=22	=22	=22	=22	=22	=22	=22	=22	=22	=22	=22	=22
2BB	fi-	2G	.	0r	.	2d	ma-	4G]	.	2r	.
.	.	.	.	.	.	.	.	4F#i	.	.	.
2AA	.	2C	.	.	.	2c	-te	4F#i	.	2a	Vir-
.	.	.	.	.	.	.	.	4E	.	.	.
1GG	.	1D	-lia,	.	.	2c	fi-	1G	-a.	2b	.
.	.	.	.	.	.	2B	-li-	.	.	2g	-go,
=23	=23	=23	=23	=23	=23	=23	=23	=23	=23	=23	=23
1C	.	2E	fi-	0r	.	1c	-a.	2r	.	2a	ma-
.	.	2c	.	.	.	.	.	2G	Per	1g	.
1D	-li-	2B	.	.	.	1r	.	[1d	quod	.	.
.	.	2A	.	.	.	.	.	.	.	2f#i	.
=24	=24	=24	=24	=24	=24	=24	=24	=24	=24	=24	=24
1GG	-a.	1B	-li-	0r	.	0r	.	1d]	.	0g	-ter
1r	.	1c	.	.	.	.	.	1e	A-	.	.
=25	=25	=25	=25	=25	=25	=25	=25	=25	=25	=25	=25
0GG	Per	0B	-a.	1D	Per	0r	.	0d	-ve	2.g	fi-
.	.	.	.	.	.	.	.	.	.	8fL	.
.	.	.	.	.	.	.	.	.	.	8eJ	.
.	.	.	.	1G	quod	.	.	.	.	2d	.
.	.	.	.	.	.	.	.	.	.	[2g	.
=26	=26	=26	=26	=26	=26	=26	=26	=26	=26	=26	=26
1D	quod	0r	.	1A	A-	1r	.	2.d	sa-	2g]	.
.	.	.	.	.	.	.	.	.	.	2f#i	-li-
.	.	.	.	.	.	.	.	4c	.	.	.
1E	A-	.	.	1G	-ve	1G	Per	4B	.	[1g	-a,
.	.	.	.	.	.	.	.	4A	.	.	.
.	.	.	.	.	.	.	.	2B	.	.	.
=27	=27	=27	=27	=27	=27	=27	=27	=27	=27	=27	=27
1C	-ve	2r	.	0r	.	1c	quod	2E	-lu-	0g]	.
.	.	2C	Per	.	.	.	.	1c	-ta-	.	.
1r	.	1G	quod	.	.	1d	A-	.	.	.	.
.	.	.	.	.	.	.	.	2B	.	.	.
=28	=28	=28	=28	=28	=28	=28	=28	=28	=28	=28	=28
0r	.	1A	A-	0r	.	1c	-ve	1c	-ta,	2r	.
.	.	.	.	.	.	.	.	.	.	2c	Per
.	.	2G	.	.	.	1r	.	2r	.	1g	quod
.	.	2E	.	.	.	.	.	2G	per	.	.
=29	=29	=29	=29	=29	=29	=29	=29	=29	=29	=29	=29
1r	.	1F	.	1r	.	0r	.	1d	quod	1.a	A-
1C	sa-	1E	-ve	1c	sa-	.	.	1e	A-	.	.
.	.	.	.	.	.	.	.	.	.	[2g	.
=30	=30	=30	=30	=30	=30	=30	=30	=30	=30	=30	=30
1D	-lu-	1r	.	2B	-lu-	0r	.	2.d	.	2g]	.
.	.	.	.	1A	-ta-	.	.	.	.	2f#i	.
.	.	.	.	.	.	.	.	4c	.	.	.
2E	-ta-	2r	.	.	.	.	.	2B	.	1g	-ve
2C	.	2c	sa-	[2G	.	.	.	2e	.	.	.
=31	=31	=31	=31	=31	=31	=31	=31	=31	=31	=31	=31
1D	.	2B	-lu-	2G]	.	1f	sa-	1d	-ve	0r	.
.	.	2.A	-ta-	2F#i	.	.	.	.	.	.	.
2C	.	.	.	1G	-ta	2e	-lu-	1r	.	.	.
.	.	4G	.	.	.	.	.	.	.	.	.
2BB	.	[2G	.	.	.	[2d	-ta-	.	.	.	.
=32	=32	=32	=32	=32	=32	=32	=32	=32	=32	=32	=32
1AA	.	2G]	.	0r	.	2d]	.	1r	.	0r	.
.	.	2F#i	.	.	.	1c	.	.	.	.	.
2GG	-ta	1G	-ta	.	.	.	.	1g	sa-	.	.
2G	Mox	.	.	.	.	2B	.	.	.	.	.
=33	=33	=33	=33	=33	=33	=33	=33	=33	=33	=33	=33
2A	con-	2r	.	1r	.	1c	-ta	2f	-lu-	1cc	sa-
1G	-ce-	2C	Mox	.	.	.	.	2.e	-ta-	.	.
.	.	2E	.	2r	.	1r	.	.	.	2b	-lu-
.	.	.	.	.	.	.	.	4d	.	.	.
2F	-pit	2F	con-	2A	Mox	.	.	[2d	.	[2a	-ta-
=34	=34	=34	=34	=34	=34	=34	=34	=34	=34	=34	=34
1E	foe-	2G	-ce-	2B	.	0r	.	2d]	.	4a]	.
.	.	.	.	.	.	.	.	.	.	4g	.
.	.	2E	.	2G	con-	.	.	2c#i	.	1g	.
1D	-cun-	1F	.	1A	-ce-	.	.	1d	.	.	.
.	.	.	.	.	.	.	.	.	.	2f#i	.
=35	=35	=35	=35	=35	=35	=35	=35	=35	=35	=35	=35
1GG	-da-	2D	-pit	1G	-pit,	2r	.	1B	.	0g	-ta
.	.	2G	foe-	.	.	2d	Mox	.	.	.	.
1C	.	2E	-cun-	2r	.	2e	con-	1c	-ta	.	.
.	.	[2G	-da-	2E	mox	2c	-ce-	.	.	.	.
=36	=36	=36	=36	=36	=36	=36	=36	=36	=36	=36	=36
1BB-X	.	4G]	.	2F	con-	1d	.	1r	.	1r	.
.	.	4F	.	.	.	.	.	.	.	.	.
.	.	2D	.	2G	-ce-	.	.	.	.	.	.
1AA	-ta,	[1E	.	1A	-pit	1c	-pit,	2r	.	2.e	Mox
.	.	.	.	.	.	.	.	[2c	Mox	.	.
.	.	.	.	.	.	.	.	.	.	4f	.
=37	=37	=37	=37	=37	=37	=37	=37	=37	=37	=37	=37
0r	.	2E]	.	2G	foe-	2r	.	2c]	.	4g	.
.	.	.	.	.	.	.	.	.	.	4e	.
.	.	2F	.	2F	-cun-	2A	mox	2d	con-	1a	.
.	.	1G	.	1E	-da-	2B	con-	1e	-ce-	.	.
.	.	.	.	.	.	2c	-ce-	.	.	2g	con-
=38	=38	=38	=38	=38	=38	=38	=38	=38	=38	=38	=38
2r	.	2A	.	1D	-ta	1d	-pit	2A	.	2f	-ce-
2GG	foe-	1G	.	.	.	.	.	2B	.	4e	.
.	.	.	.	.	.	.	.	.	.	4d	.
2C	-cun-	.	.	1r	.	2c	foe-	2G	.	2e	.
2D	-da-	2F	.	.	.	2B	-cun-	2d	.	[2d	.
=39	=39	=39	=39	=39	=39	=39	=39	=39	=39	=39	=39
1AA	-ta	2E	-ta	0r	.	1A	-da-	2.e	.	2d]	.
.	.	2A	Vir-	.	.	.	.	.	.	2c#i	.
.	.	.	.	.	.	.	.	4f	.	.	.
1r	.	2.B	-go	.	.	1G	-ta	1g	-pit	2d	-pit
.	.	.	.	.	.	.	.	.	.	[2dd	foe-
.	.	4c	Da-	.	.	.	.	.	.	.	.
=40	=40	=40	=40	=40	=40	=40	=40	=40	=40	=40	=40
1GG	Vir-	2d	-vid	2r	.	0r	.	2r	.	4dd]	.
.	.	.	.	.	.	.	.	.	.	4cc	.
.	.	1d	stir-	2G	Vir-	.	.	2.g	foe-	4b	-cun-
.	.	.	.	.	.	.	.	.	.	4a	.
1GG	-go	.	.	1G	-go	.	.	.	.	1b	-da-
.	.	.	.	.	.	.	.	4f	.	.	.
.	.	2B	-pe	.	.	.	.	2d	.	.	.
=41	=41	=41	=41	=41	=41	=41	=41	=41	=41	=41	=41
0C	Da-	2.c	na-	2.E	Da-	1r	.	1e	-cun-	[0g	-ta
.	.	4d	.	4F	.	.	.	.	.	.	.
.	.	[1e	.	[1G	-vid	2r	.	2.c	-da-	.	.
.	.	.	.	.	.	2c	Vir-	.	.	.	.
.	.	.	.	.	.	.	.	4d	.	.	.
=42	=42	=42	=42	=42	=42	=42	=42	=42	=42	=42	=42
1C	-vid	1e]	.	2G]	.	1c	-go	2e	.	1g]	.
.	.	.	.	2G	stir-	.	.	2E	.	.	.
1D	stir-	2d	-ta,	2F	-pe	2.A	Da-	1F	.	1r	.
.	.	2D	vir-	[2A	na-	.	.	.	.	.	.
.	.	.	.	.	.	4B	.	.	.	.	.
=43	=43	=43	=43	=43	=43	=43	=43	=43	=43	=43	=43
2.C	-pe	1E	-go	4A]	.	1.c	-vid	1G	.	0r	.
.	.	.	.	4G	.	.	.	.	.	.	.
.	.	.	.	1G	.	.	.	.	.	.	.
4BB	.	.	.	.	.	.	.	.	.	.	.
1AA	na-	2.C	Da-	.	.	.	.	1A	-ta	.	.
.	.	.	.	2F#i	.	2c	stir-	.	.	.	.
.	.	4D	.	.	.	.	.	.	.	.	.
=44	=44	=44	=44	=44	=44	=44	=44	=44	=44	=44	=44
1GG	-ta,	2E	.	1G	-ta,	2B	-pe	1B	Vir-	2r	.
.	.	2D	-vid	.	.	2.d	na-	.	.	2g	Vir-
1r	.	1A	stir-	1r	.	.	.	1c	-go	2e	.
.	.	.	.	.	.	4c	.	.	.	.	.
.	.	.	.	.	.	[2c	.	.	.	2f	-go
=45	=45	=45	=45	=45	=45	=45	=45	=45	=45	=45	=45
0r	.	1G	-pe	0r	.	2c]	.	1d	Da-	1.g	Da-
.	.	.	.	.	.	2B	.	.	.	.	.
.	.	2E	na-	.	.	1c	-ta,	2e	-vid	.	.
.	.	2F	.	.	.	.	.	2c	.	2a	-vid
=46	=46	=46	=46	=46	=46	=46	=46	=46	=46	=46	=46
2r	.	1.G	-ta,	0r	.	0r	.	1B	.	2d	stir-
2G	In-	.	.	.	.	.	.	.	.	1g	.
2E	.	.	.	.	.	.	.	2c	stir-	.	.
2F	-ter	2A	stir-	.	.	.	.	[2d	-pe	4f	.
.	.	.	.	.	.	.	.	.	.	4e	.
=47	=47	=47	=47	=47	=47	=47	=47	=47	=47	=47	=47
1G	spi-	1B	-pe	0r	.	0r	.	2d]	.	2d	.
.	.	.	.	.	.	.	.	2e	.	2g	.
2F	-nas	2c	na-	.	.	.	.	2f	na-	2a	.
2G	li-	[2B	.	.	.	.	.	[2d	.	[2g	.
=48	=48	=48	=48	=48	=48	=48	=48	=48	=48	=48	=48
1E	-li-	2B]	.	1r	.	0r	.	2d]	.	2g]	.
.	.	4A	.	.	.	.	.	2c#i	.	4f#i	.
.	.	4G	.	.	.	.	.	.	.	4e	.
1D	-a,	1A	.	2r	.	.	.	1d	-ta,	1f#i	.
.	.	.	.	2A	In-	.	.	.	.	.	.
=49	=49	=49	=49	=49	=49	=49	=49	=49	=49	=49	=49
1r	.	1G	-ta,	1B	-ter	0r	.	2r	.	2g	-pe
.	.	.	.	.	.	.	.	2d	In-	1dd	na-
1AA	in-	2.c	[na-	1A	spi-	.	.	1e	-ter	.	.
.	.	.	.	.	.	.	.	.	.	2cc	.
.	.	4B	.	.	.	.	.	.	.	.	.
=50	=50	=50	=50	=50	=50	=50	=50	=50	=50	=50	=50
2D	-ter	2A	.	2F	-nas	2r	.	2d	spi-	1dd	.
2GG	.	2G	.	1G	li-	2d	In-	2B	.	.	.
1C	spi-	1E	-ta,]	.	.	1e	-terr	1c	.	1g	-ta,
.	.	.	.	4F	.	.	.	.	.	.	.
.	.	.	.	4E	.	.	.	.	.	.	.
=51	=51	=51	=51	=51	=51	=51	=51	=51	=51	=51	=51
1D	-nas,	2r	.	4F#i	.	1d	spi-	1A	.	0r	.
.	.	.	.	2G	-li-	.	.	.	.	.	.
.	.	2D	In-	.	.	.	.	.	.	.	.
.	.	.	.	4F#i	.	.	.	.	.	.	.
1r	.	1E	-ter	[1G	-a.	2B	-nas	1G	-nas	.	.
.	.	.	.	.	.	[2c	li-	.	.	.	.
=52	=52	=52	=52	=52	=52	=52	=52	=52	=52	=52	=52
0GG	[in-	2.D	spi-	1G]	.	2c]	.	0d	li-	1r	.
.	.	.	.	.	.	4B	.	.	.	.	.
.	.	4C	.	.	.	4A	.	.	.	.	.
.	.	1D	-nas	1r	.	4B	.	.	.	[1g	In-
.	.	.	.	.	.	2c	-li-	.	.	.	.
.	.	.	.	.	.	4B	.	.	.	.	.
=53	=53	=53	=53	=53	=53	=53	=53	=53	=53	=53	=53
0C	.	2.C	li-	0r	.	0c	-a,	0e	-li-	0g]	.
.	.	4D	.	.	.	.	.	.	.	.	.
.	.	4E	.	.	.	.	.	.	.	.	.
.	.	4F	.	.	.	.	.	.	.	.	.
.	.	[2G	.	.	.	.	.	.	.	.	.
=54	=54	=54	=54	=54	=54	=54	=54	=54	=54	=54	=54
1GG	-ter	4G]	.	0r	.	0r	.	0d	-a,	1b	-ter
.	.	4D	.	.	.	.	.	.	.	.	.
.	.	1G	.	.	.	.	.	.	.	.	.
1D	spi-	.	.	.	.	.	.	.	.	1a	spi-
.	.	2F#i	-li-	.	.	.	.	.	.	.	.
=55	=55	=55	=55	=55	=55	=55	=55	=55	=55	=55	=55
1E	.	1G	-a,	0r	.	0r	.	2B	[in-	2g	.
.	.	.	.	.	.	.	.	2c	.	4f	.
.	.	.	.	.	.	.	.	.	.	4e	.
[1D	.	1A	in-	.	.	.	.	2d	-ter	4f	.
.	.	.	.	.	.	.	.	.	.	4g	.
.	.	.	.	.	.	.	.	[2f	spi-	[2a	.
=56	=56	=56	=56	=56	=56	=56	=56	=56	=56	=56	=56
2D]	.	1B	-ter	0r	.	0r	.	2f]	.	2a]	.
2GG	-nas]	.	.	.	.	.	.	4e	.	2.g	.
.	.	.	.	.	.	.	.	4d	.	.	.
2C	li-	1A	spi-	.	.	.	.	2e	.	.	.
.	.	.	.	.	.	.	.	.	.	8fL	.
.	.	.	.	.	.	.	.	.	.	8eJ	.
2D	.	.	.	.	.	.	.	[2d	.	2f	.
=57	=57	=57	=57	=57	=57	=57	=57	=57	=57	=57	=57
1E	.	2.G	-nas	0r	.	0r	.	2d]	.	2e	-nas
.	.	.	.	.	.	.	.	2c#i	.	1g	li-
.	.	4A	.	.	.	.	.	.	.	.	.
1D	.	2B	.	.	.	.	.	2d	-nas]	.	.
.	.	[2A	li-	.	.	.	.	2D	li-	2f#i	-li-
=58	=58	=58	=58	=58	=58	=58	=58	=58	=58	=58	=58
2C	.	4A]	.	2r	.	0r	.	2E	.	1g	-a,
.	.	4G	.	.	.	.	.	.	.	.	.
2BB	.	1G	-li-	2G	A-	.	.	1D	-li-	.	.
1AA	-li-	.	.	1c	-ve	.	.	.	.	1a	li-
.	.	2F#i	.	.	.	.	.	2C	.	.	.
=59	=59	=59	=59	=59	=59	=59	=59	=59	=59	=59	=59
1GG	-a.	1G	.	1B	.	1r	.	2D	-a.]	2d	.
.	.	.	.	.	.	.	.	2G	A-	1dd	.
1r	.	2F	.	1c	ve-	2r	.	2A	.	.	.
.	.	2E	.	.	.	2c	A-	[2G	.	2cc	.
=60	=60	=60	=60	=60	=60	=60	=60	=60	=60	=60	=60
1r	.	1D	-a,	1d	-ri	1f	-ve	2G]	.	2b	-li-
.	.	.	.	.	.	.	.	2F	.	2a	.
1C	A-	2r	.	2.c	Sa-	1e	.	4G	.	[1cc	-a,
.	.	.	.	.	.	.	.	4E	.	.	.
.	.	[2c	li-	.	.	.	.	2e	.	.	.
.	.	.	.	4B	-lo-	.	.	.	.	.	.
=61	=61	=61	=61	=61	=61	=61	=61	=61	=61	=61	=61
1F	-ve	2c]	.	1A	-mo-	1f	ve-	2.c	.	1cc]	.
.	.	4B	.	.	.	.	.	.	.	.	.
.	.	4A	.	.	.	.	.	4d	.	.	.
1E	.	2B	.	1G	-nis	1g	-ri-	2.e	.	2r	.
.	.	2c	-li-	.	.	.	.	.	.	2g	A-
.	.	.	.	.	.	.	.	4d	.	.	.
=62	=62	=62	=62	=62	=62	=62	=62	=62	=62	=62	=62
1F	ve-	1A	-a,	0r	.	2.f	-Sa-	2c	.	1cc	-ve
.	.	.	.	.	.	.	.	2A	-ve	.	.
.	.	.	.	.	.	4e	-lo-	.	.	.	.
1G	-ri	2r	.	.	.	1d	-mo-	2B	ve-	1b	.
.	.	[2G	A-	.	.	.	.	2d	.	.	.
=63	=63	=63	=63	=63	=63	=63	=63	=63	=63	=63	=63
2E	Sa-	2G]	.	0r	.	1c	-nis	2e	.	1cc	ve-
2F	-lo-	1c	-ve	.	.	.	.	2A	-ri	.	.
1D	-mo-	.	.	.	.	1r	.	1f	Sa-	[1dd	-ri
.	.	2B	.	.	.	.	.	.	.	.	.
=64	=64	=64	=64	=64	=64	=64	=64	=64	=64	=64	=64
1A	.	1c	ve-	0r	.	0r	.	2.e	.	2dd]	.
.	.	.	.	.	.	.	.	.	.	2cc	Sa-
.	.	.	.	.	.	.	.	4f	.	.	.
2G	.	1d	-ri	.	.	.	.	2g	.	2b	-lo-
2F	.	.	.	.	.	.	.	2d	-lo-	[2a	-mo-
=65	=65	=65	=65	=65	=65	=65	=65	=65	=65	=65	=65
1E	-nis	2c	Sa-	2r	.	0r	.	1.e	-mo-	4a]	.
.	.	.	.	.	.	.	.	.	.	4g	.
.	.	2B	.	2G	Ma-	.	.	.	.	1g	.
1r	.	1A	.	1c	-ter,	.	.	.	.	.	.
.	.	.	.	.	.	.	.	4d	.	2f#i	.
.	.	.	.	.	.	.	.	4c	.	.	.
=66	=66	=66	=66	=66	=66	=66	=66	=66	=66	=66	=66
0r	.	1G	-lo-	1B	.	1r	.	2.d	.	1g	-nis
.	.	.	.	.	.	.	.	8cL	.	.	.
.	.	.	.	.	.	.	.	8BJ	.	.	.
.	.	2F	.	1c	vel-	2r	.	2A	.	1r	.
.	.	2E	.	.	.	2c	Ma-	2G	.	.	.
=67	=67	=67	=67	=67	=67	=67	=67	=67	=67	=67	=67
1r	.	1D	-mo-	1.d	-lus	1f	-ter,	1A	.	0r	.
1C	Ma-	2E	.	.	.	1e	.	1G	-nis	.	.
.	.	2G	.	2c	Ge-	.	.	.	.	.	.
=68	=68	=68	=68	=68	=68	=68	=68	=68	=68	=68	=68
1D	.	1F	.	2B	.	1f	vel-	[0d	Ma-	1r	.
.	.	.	.	2A	-de-	.	.	.	.	.	.
1GG	-ter,	[1D	-nis	2.B	-o-	[1g	-lus	.	.	2r	.
.	.	.	.	.	.	.	.	.	.	2g	Ma-
.	.	.	.	4c	.	.	.	.	.	.	.
=69	=69	=69	=69	=69	=69	=69	=69	=69	=69	=69	=69
1D	vel-	1D]	.	1A	.	2g]	.	1d]	.	1a	-ter
.	.	.	.	.	.	2f	Ge-	.	.	.	.
2GG	-lus	1r	.	1G	-nis,	2e	.	1B	.	1b	vel-
2GG	Ge-	.	.	.	.	2d	-de-	.	.	.	.
=70	=70	=70	=70	=70	=70	=70	=70	=70	=70	=70	=70
1C	-de-	2r	.	0r	.	2.e	-o-	2c	-terr,	2g	-lus
.	.	[1.G	Ma-	.	.	.	.	2.g	vel-	1cc	Ge-
.	.	.	.	.	.	4f	.	.	.	.	.
2GG	.	.	.	.	.	1d	.	.	.	.	.
.	.	.	.	.	.	.	.	4f	.	.	.
2G	.	.	.	.	.	.	.	2d	.	2b	-de-
=71	=71	=71	=71	=71	=71	=71	=71	=71	=71	=71	=71
2E	.	2G]	.	0r	.	1c	-nis,	2e	.	1cc	-o-
2F	.	1c	-ter	.	.	.	.	2A	-lus	.	.
1D	.	.	.	.	.	1r	.	1f	Ge-	[1dd	.
.	.	2B	.	.	.	.	.	.	.	.	.
=72	=72	=72	=72	=72	=72	=72	=72	=72	=72	=72	=72
1A	.	1c	vel-	1r	.	0r	.	2.e	.	2dd]	.
.	.	.	.	.	.	.	.	.	.	2cc	.
.	.	.	.	.	.	.	.	4f	.	.	.
2G	.	2d	-lus	2r	.	.	.	2g	.	2b	.
2F	.	2D	Ge-	2A	Cu-	.	.	2d	-de-	[2a	.
=73	=73	=73	=73	=73	=73	=73	=73	=73	=73	=73	=73
2E	.	2G	-de-	1B	-jus	0r	.	1e	-o-	4a]	.
.	.	.	.	.	.	.	.	.	.	4g	.
2G	.	2E	.	.	.	.	.	.	.	1g	.
1D	-o-	1F	-o-	1A	Ma-	.	.	1d	-nis,	.	.
.	.	.	.	.	.	.	.	.	.	2f#i	.
=74	=74	=74	=74	=74	=74	=74	=74	=74	=74	=74	=74
1GG	-nis,	1D	-nis,	[0G	-gi	2r	.	2B	Cu-	1.g	-nis,
.	.	.	.	.	.	2d	Cu-	2B	-jus	.	.
1C	Cu-	2r	.	.	.	1e	-jus	1c	Ma-	.	.
.	.	2C	Cu-	.	.	.	.	.	.	2g	Cu-
=75	=75	=75	=75	=75	=75	=75	=75	=75	=75	=75	=75
1GG	-jus	1D	-jus	1G]	.	1d	Ma-	1B	-gi	1g	-jus
1C	Ma-	1E	Ma-	2r	.	[1c	-gi	1G	tri-	1g	Ma-
.	.	.	.	2E	tri-	.	.	.	.	.	.
=76	=76	=76	=76	=76	=76	=76	=76	=76	=76	=76	=76
2.FF	-gi	0C	-gi	1F	-bus	0c]	.	2.A	-bus	2f	-gi
.	.	.	.	.	.	.	.	.	.	2.a	tri-
4GG	.	.	.	.	.	.	.	4B	.	.	.
1AA	.	.	.	1E	do-	.	.	4c	.	.	.
.	.	.	.	.	.	.	.	4d	.	4b	.
.	.	.	.	.	.	.	.	2e	.	2cc	.
=77	=77	=77	=77	=77	=77	=77	=77	=77	=77	=77	=77
2r	.	2.D	tri-	[0D	-nis	2r	.	1.f	do-	2b	-bus
1D	tri-	.	.	.	.	2A	tri-	.	.	1a	do-
.	.	4E	.	.	.	.	.	.	.	.	.
.	.	2F	.	.	.	1B	-bus	.	.	.	.
2GG	-bus	2G	.	.	.	.	.	2d	.	[2g	.
=78	=78	=78	=78	=78	=78	=78	=78	=78	=78	=78	=78
1D	do-	1A	.	1D]	.	1A	do-	0d	-nis	2g]	.
.	.	.	.	.	.	.	.	.	.	2f	.
2GG	-nis	[1B	-bus	1r	.	[1G	-nis	.	.	2.g	.
[2G	Lau-	.	.	.	.	.	.	.	.	.	.
.	.	.	.	.	.	.	.	.	.	4f	.
=79	=79	=79	=79	=79	=79	=79	=79	=79	=79	=79	=79
4G]	.	1B]	.	1G	Lau-	0G]	.	1r	.	4e	.
4F	.	.	.	.	.	.	.	.	.	4d	.
4E	.	.	.	.	.	.	.	.	.	1d	.
4D	.	.	.	.	.	.	.	.	.	.	.
1E	.	1G	do-	2G	-dant	.	.	1g	Lau-	.	.
.	.	.	.	2E	.	.	.	.	.	2c#i	.
=80	=80	=80	=80	=80	=80	=80	=80	=80	=80	=80	=80
1D	.	2A	.	2.F	puer-	1r	.	1f	-dant	1d	-nis
.	.	2D	.	.	.	.	.	.	.	.	.
.	.	.	.	4G	.	.	.	.	.	.	.
2.C	.	1E	.	2A	.	1c	Lau-	[1e	puer-	1r	.
.	.	.	.	[2G	-pe-	.	.	.	.	.	.
4BB	.	.	.	.	.	.	.	.	.	.	.
=81	=81	=81	=81	=81	=81	=81	=81	=81	=81	=81	=81
1AA	.	1C	-nis	2G]	.	2c	-dant	2e]	.	0r	.
.	.	.	.	2F#i	-ri-	2A	.	4d	.	.	.
.	.	.	.	.	.	.	.	4c	.	.	.
[1GG	-dant,	2r	.	[1G	-um	2.B	puer-	2e	.	.	.
.	.	[2G	Lau-	.	.	.	.	2d	.	.	.
.	.	.	.	.	.	4c	.	.	.	.	.
=82	=82	=82	=82	=82	=82	=82	=82	=82	=82	=82	=82
1GG]	.	4G]	.	0G]	.	2d	.	2B	-per-	1r	.
.	.	4F	.	.	.	.	.	.	.	.	.
.	.	2E	.	.	.	1c	-pe	2c	-ri-	.	.
1GG	lau-	2D	-dant	.	.	.	.	1d	-um,	1g	Lau-
.	.	2G	puer-	.	.	2B	ri-	.	.	.	.
=83	=83	=83	=83	=83	=83	=83	=83	=83	=83	=83	=83
0C	-dant	2.E	.	0r	.	[0c	-um,	1G	[puer-	2g	-dant
.	.	.	.	.	.	.	.	.	.	2.e	puer-
.	.	4F	.	.	.	.	.	.	.	.	.
.	.	2G	.	.	.	.	.	2E	.	.	.
.	.	.	.	.	.	.	.	.	.	4f	.
.	.	2E	.	.	.	.	.	[2c	-pe-	2g	.
=84	=84	=84	=84	=84	=84	=84	=84	=84	=84	=84	=84
2.FF	puer-	2.F	-per-	2r	.	1c]	.	4c]	.	2a	.
.	.	.	.	.	.	.	.	4B	.	.	.
.	.	.	.	2A	lau-	.	.	1A	.	1cc	-pe-
4GG	.	4E	.	.	.	.	.	.	.	.	.
2AA	.	2C	.	2F	-dant	1r	.	.	.	.	.
2BB	.	2D	.	2G	.	.	.	[2G	-ri-	2b	.
=85	=85	=85	=85	=85	=85	=85	=85	=85	=85	=85	=85
2C	.	2E	.	1A	puer-	1r	.	2G]	.	1a	.
2D	.	2F	.	.	.	.	.	2F#i	.	.	.
1GG	.	1D	.	[1B-i	-pe-	2r	.	[1G	-um,]	2.g	.
.	.	.	.	.	.	2d	puer-	.	.	.	.
.	.	.	.	.	.	.	.	.	.	4f	.
=86	=86	=86	=86	=86	=86	=86	=86	=86	=86	=86	=86
2G	-pe-	1E	.	2B-]	.	2B	-pe-	1G]	.	4e	.
.	.	.	.	.	.	.	.	.	.	4d	.
2E	.	.	.	2G	.	2c	-ri-	.	.	1g	.
1D	-ri-	1F	-ri-	1A	-ri-	[1dl	-um.	1r	.	.	.
.	.	.	.	.	.	.	.	.	.	2f#i	-ri-
=	=	=	=	=	=	=	=	=	=	=	=
00GG	-um.	00D	-um.	00G	-um.	00d]	.	00B	[um.]	00g	-um.
=||	=||	=||	=||	=||	=||	=||	=||	=||	=||	=||	=||
*M2/1	*	*M2/1	*	*M2/1	*	*M2/1	*	*M2/1	*	*M2/1	*
*met(C)	*	*met(C)	*	*met(C)	*	*met(C)	*	*met(C)	*	*met(C)	*
!!section: Secunda pars: Ave solem genuisti
!!!OMD: Secunda pars: Ave solem genuisti
!	!	!	!	!	!	!LO:TX:a:t=Canon&colon; altus II/tenor at the fifth	!	!	!	!	!
0r	.	0r	.	0r	.	0r	.	1c	A-	0r	.
.	.	.	.	.	.	.	.	1f	-ve,	.	.
=87	=87	=87	=87	=87	=87	=87	=87	=87	=87	=87	=87
0r	.	0r	.	0r	.	0r	.	1.e	.	1g	A-
.	.	.	.	.	.	.	.	.	.	1cc	-ve,
.	.	.	.	.	.	.	.	2f	so-	.	.
=88	=88	=88	=88	=88	=88	=88	=88	=88	=88	=88	=88
0r	.	0r	.	0r	.	0r	.	1g	-lem	1b	.
.	.	.	.	.	.	.	.	2f	ge-	1cc	so-
.	.	.	.	.	.	.	.	2e	-nu-	.	.
=89	=89	=89	=89	=89	=89	=89	=89	=89	=89	=89	=89
0r	.	0r	.	0r	.	0r	.	2d	-i-	1dd	-lem
.	.	.	.	.	.	.	.	2.f	.	.	.
.	.	.	.	.	.	.	.	.	.	2cc	ge-
.	.	.	.	.	.	.	.	4e	.	.	.
.	.	.	.	.	.	.	.	[2d	.	2b	-nu-
=90	=90	=90	=90	=90	=90	=90	=90	=90	=90	=90	=90
0r	.	0r	.	0r	.	0r	.	2d]	.	2.a	-i-
.	.	.	.	.	.	.	.	2c	.	.	.
.	.	.	.	.	.	.	.	.	.	4g	.
.	.	.	.	.	.	.	.	1d	.	2b	.
.	.	.	.	.	.	.	.	.	.	[2a	.
=91	=91	=91	=91	=91	=91	=91	=91	=91	=91	=91	=91
0r	.	0r	.	0r	.	0r	.	2c	.	4a]	.
.	.	.	.	.	.	.	.	.	.	4g	.
.	.	.	.	.	.	.	.	2B	.	1g	.
.	.	.	.	.	.	.	.	1A	.	.	.
.	.	.	.	.	.	.	.	.	.	2f#i	.
=92	=92	=92	=92	=92	=92	=92	=92	=92	=92	=92	=92
1C	A-	0r	.	0r	.	0r	.	1e	.	1g	.
1F	-ve,	.	.	.	.	.	.	2d	.	1a	.
.	.	.	.	.	.	.	.	[2c	.	.	.
=93	=93	=93	=93	=93	=93	=93	=93	=93	=93	=93	=93
1E	.	1G	A-	0r	.	0r	.	2c]	.	1g	-sti,
.	.	.	.	.	.	.	.	2B	.	.	.
1F	so-	1c	-ve,	.	.	.	.	1A	-sti,	1r	.
=94	=94	=94	=94	=94	=94	=94	=94	=94	=94	=94	=94
1G	-lem	1B	.	0r	.	0r	.	2r	.	0r	.
.	.	.	.	.	.	.	.	1d	[a-	.	.
2F	ge-	1c	so-	.	.	.	.	.	.	.	.
2E	-nu-	.	.	.	.	.	.	2c	.	.	.
=95	=95	=95	=95	=95	=95	=95	=95	=95	=95	=95	=95
2D	-i-	1d	-lem	0r	.	0r	.	2B	-ve,	0r	.
2.F	.	.	.	.	.	.	.	2.A	so-	.	.
.	.	2c	ge-	.	.	.	.	.	.	.	.
4E	.	.	.	.	.	.	.	4G	.	.	.
[2D	.	2B	-nu-	.	.	.	.	[2F	.	.	.
=96	=96	=96	=96	=96	=96	=96	=96	=96	=96	=96	=96
2D]	.	2.A	-i-	0r	.	0r	.	2F]	.	0r	.
2C#i	.	.	.	.	.	.	.	2E	.	.	.
.	.	4G	.	.	.	.	.	.	.	.	.
1D	.	2B	.	.	.	.	.	1F	.	.	.
.	.	[2A	.	.	.	.	.	.	.	.	.
=97	=97	=97	=97	=97	=97	=97	=97	=97	=97	=97	=97
2C	.	4A]	.	0r	.	0r	.	2E	.	1g	A-
.	.	4G	.	.	.	.	.	.	.	.	.
2BB	.	1G	.	.	.	.	.	2D	.	.	.
1AA	.	.	.	.	.	.	.	2C	-lem	1cc	-ve,
.	.	2F#i	.	.	.	.	.	2c	ge-	.	.
=98	=98	=98	=98	=98	=98	=98	=98	=98	=98	=98	=98
2GG	-sti,	1G	-sti,	0r	.	0r	.	2e	.	1b	.
2G	[a-	.	.	.	.	.	.	2.d	.	.	.
2F	.	2A	[a-	.	.	.	.	.	.	1cc	so-
.	.	.	.	.	.	.	.	4c	.	.	.
2E	.	[2G	.	.	.	.	.	2c	-nu-	.	.
=99	=99	=99	=99	=99	=99	=99	=99	=99	=99	=99	=99
1D	.	2G]	.	0r	.	1d	A-	2B	.	2.dd	-lem
.	.	2F	.	.	.	.	.	2A	.	.	.
.	.	.	.	.	.	.	.	.	.	4cc	.
2E	.	2G	.	.	.	2g	-ve,	2G	.	2b	.
2F	.	2D	.	.	.	2f	.	2d	.	[2a	ge-
=100	=100	=100	=100	=100	=100	=100	=100	=100	=100	=100	=100
2C	.	1E	-ve,	0r	.	1g	so-	2c	.	4a]	.
.	.	.	.	.	.	.	.	.	.	4g	.
2E	.	.	.	.	.	.	.	2B	.	1g	-nu-
1D	.	1F	.	.	.	1a	-lem	2.d	.	.	.
.	.	.	.	.	.	.	.	.	.	2f#i	-i-
.	.	.	.	.	.	.	.	4c	.	.	.
=101	=101	=101	=101	=101	=101	=101	=101	=101	=101	=101	=101
2GG	-ve,	2D	so-	1G	A-	2.g	ge-	4B	.	[0g	-sti,
.	.	.	.	.	.	.	.	4A	.	.	.
2.C	so-	2.E	.	.	.	.	.	2c	.	.	.
.	.	.	.	.	.	4f	.	.	.	.	.
.	.	.	.	2c	-ve,	2e	.	2G	.	.	.
4BB	.	4F	.	.	.	.	.	.	.	.	.
2GG	.	2G	.	2B	.	2d	-nu-	[2d	.	.	.
=102	=102	=102	=102	=102	=102	=102	=102	=102	=102	=102	=102
1C	-lem	2E	.	1c	so-	1e	-i-	4d]	.	0g]	.
.	.	.	.	.	.	.	.	4c	.	.	.
.	.	2C	-lem	.	.	.	.	1c	-i-	.	.
1GG	ge-	2.G	ge-	1d	-lem	1d	-sti,	.	.	.	.
.	.	.	.	.	.	.	.	2B	.	.	.
.	.	4F	.	.	.	.	.	.	.	.	.
=103	=103	=103	=103	=103	=103	=103	=103	=103	=103	=103	=103
2.AA	-nu-	4E	.	2.c	ge-	0r	.	1c	-sti,]	0r	.
.	.	4D	.	.	.	.	.	.	.	.	.
.	.	1F	.	.	.	.	.	.	.	.	.
4BB	.	.	.	4B	.	.	.	.	.	.	.
1C	.	.	.	2A	.	.	.	2r	.	.	.
.	.	2E	-nu-	2G	-nu-	.	.	2c	A-	.	.
=104	=104	=104	=104	=104	=104	=104	=104	=104	=104	=104	=104
1FF	.	2D	.	1A	-i-	0r	.	1f	-ve,	1r	.
.	.	1C	.	.	.	.	.	.	.	.	.
2.C	-i-	.	.	1G	-sti,	.	.	[1e	.	1g	A-
.	.	[2c	-i-	.	.	.	.	.	.	.	.
4BB	.	.	.	.	.	.	.	.	.	.	.
=105	=105	=105	=105	=105	=105	=105	=105	=105	=105	=105	=105
1AA	.	4c]	.	0r	.	0r	.	2e]	.	1cc	-ve
.	.	4B	.	.	.	.	.	.	.	.	.
.	.	2c	.	.	.	.	.	2f	.	.	.
1GG	-sti,]	2d	.	.	.	.	.	1g	pro-	1b	.
.	.	2G	.	.	.	.	.	.	.	.	.
=106	=106	=106	=106	=106	=106	=106	=106	=106	=106	=106	=106
0r	.	1A	.	0r	.	0r	.	2f	-lem	1cc	pro-
.	.	.	.	.	.	.	.	2e	pro-	.	.
.	.	1D	-sti,]	.	.	.	.	2d	-tu-	1dd	-lem
.	.	.	.	.	.	.	.	[2f	-li-	.	.
=107	=107	=107	=107	=107	=107	=107	=107	=107	=107	=107	=107
0r	.	0r	.	0r	.	0r	.	4f]	.	2cc	pro-
.	.	.	.	.	.	.	.	4e	.	.	.
.	.	.	.	.	.	.	.	1d	.	2b	-tu-
.	.	.	.	.	.	.	.	.	.	2.a	-li-
.	.	.	.	.	.	.	.	2c	.	.	.
.	.	.	.	.	.	.	.	.	.	4g	.
=108	=108	=108	=108	=108	=108	=108	=108	=108	=108	=108	=108
0r	.	0r	.	0r	.	0r	.	1d	.	2b	.
.	.	.	.	.	.	.	.	.	.	2.a	.
.	.	.	.	.	.	.	.	2c	.	.	.
.	.	.	.	.	.	.	.	.	.	4g	.
.	.	.	.	.	.	.	.	2B	.	[2g	.
=109	=109	=109	=109	=109	=109	=109	=109	=109	=109	=109	=109
1r	.	0r	.	0r	.	0r	.	1A	.	2g]	.
.	.	.	.	.	.	.	.	.	.	2f#i	.
1C	A-	.	.	.	.	.	.	1e	.	1g	.
=110	=110	=110	=110	=110	=110	=110	=110	=110	=110	=110	=110
1F	-ve,	1r	.	0r	.	0r	.	2d	.	1a	.
.	.	.	.	.	.	.	.	1c	.	.	.
1E	.	1G	A-	.	.	.	.	.	.	1g	-sti,
.	.	.	.	.	.	.	.	2B	.	.	.
=111	=111	=111	=111	=111	=111	=111	=111	=111	=111	=111	=111
1F	pro-	1c	-ve,	0r	.	0r	.	1A	-sti,	0r	.
1G	-lem	1B	.	.	.	.	.	2r	.	.	.
.	.	.	.	.	.	.	.	[2d	Mun-	.	.
=112	=112	=112	=112	=112	=112	=112	=112	=112	=112	=112	=112
2F	pro-	1c	pro-	0r	.	0r	.	2d]	.	0r	.
2E	-tu-	.	.	.	.	.	.	2c	.	.	.
2D	-li-	1d	-lem	.	.	.	.	2B	.	.	.
[2F	.	.	.	.	.	.	.	[2A	.	.	.
=113	=113	=113	=113	=113	=113	=113	=113	=113	=113	=113	=113
4F]	.	2c	pro-	0r	.	0r	.	4A]	.	0r	.
4E	.	.	.	.	.	.	.	4G	.	.	.
1D	.	2B	-tu-	.	.	.	.	1F	.	.	.
.	.	2.A	-li-	.	.	.	.	.	.	.	.
2C	.	.	.	.	.	.	.	2E	-do	.	.
.	.	4G	.	.	.	.	.	.	.	.	.
=114	=114	=114	=114	=114	=114	=114	=114	=114	=114	=114	=114
1D	.	2B	.	0r	.	0r	.	1F	la-	1r	.
.	.	2.A	.	.	.	.	.	.	.	.	.
2C	.	.	.	.	.	.	.	2E	.	1g	a-
.	.	4G	.	.	.	.	.	.	.	.	.
2BB	.	[2G	.	.	.	.	.	2D	.	.	.
=115	=115	=115	=115	=115	=115	=115	=115	=115	=115	=115	=115
1AA	.	2G]	.	0r	.	0r	.	2C	-pso	1cc	-ve,
.	.	2F#i	.	.	.	.	.	2c	con-	.	.
2GG	-sti,	1G	-sti,	.	.	.	.	2e	-tu-	1b	.
2G	[pro-	.	.	.	.	.	.	[2d	-li-	.	.
=116	=116	=116	=116	=116	=116	=116	=116	=116	=116	=116	=116
2F	-tu-	2A	a-	0r	.	1r	.	4d]	.	1cc	pro-
.	.	.	.	.	.	.	.	4c	.	.	.
2E	.	1G	.	.	.	.	.	2c	.	.	.
1D	-li-	.	.	.	.	1d	A-	2B	.	2.dd	-lem
.	.	2F#i	.	.	.	.	.	2A	.	.	.
.	.	.	.	.	.	.	.	.	.	4cc	.
=117	=117	=117	=117	=117	=117	=117	=117	=117	=117	=117	=117
2E	.	2G	.	0r	.	2g	-ve,	2G	.	2b	pro-
2F	.	2D	-ve,	.	.	2f	.	2d	.	2.a	-tu-
2C	.	1E	pro-	.	.	1g	pro-	2c	.	.	.
.	.	.	.	.	.	.	.	.	.	4g	.
2E	.	.	.	.	.	.	.	2B	.	[2g	-li-
=118	=118	=118	=118	=118	=118	=118	=118	=118	=118	=118	=118
1D	.	1F	.	1r	.	1a	-lem	2.d	.	2g]	.
.	.	.	.	.	.	.	.	.	.	2f#i	.
.	.	.	.	.	.	.	.	4c	.	.	.
2GG	-sti,	2D	-lem	1G	A-	2.g	pro-	4B	.	[1g	-sti,
.	.	.	.	.	.	.	.	4A	.	.	.
[2C	a-	[2E	pro-	.	.	.	.	2c	.	.	.
.	.	.	.	.	.	4f	.	.	.	.	.
=119	=119	=119	=119	=119	=119	=119	=119	=119	=119	=119	=119
4C]	.	4E]	.	2c	-ve,	2e	.	2G	-sti,	0g_	.
4BB	.	4F	.	.	.	.	.	.	.	.	.
2GG	-ve,	2G	.	2B	.	2d	-tu-	2.d	con-	.	.
1C	pro-	2E	-tu-	1c	pro-	1e	-li-	.	.	.	.
.	.	.	.	.	.	.	.	4c	.	.	.
.	.	2C	.	.	.	.	.	[2c	.	.	.
=120	=120	=120	=120	=120	=120	=120	=120	=120	=120	=120	=120
1GG	-lem	2.G	-li-	1d	-lem	1d	-sti,	2c]	.	1g]	.
.	.	.	.	.	.	.	.	2B	-tu-	.	.
.	.	4F	.	.	.	.	.	.	.	.	.
2AA	pro-	4E	.	2.c	pro-	1r	.	4A	-li-	1r	.
.	.	4D	.	.	.	.	.	4B	.	.	.
2BB	-tu-	[2E	.	.	.	.	.	4c	.	.	.
.	.	.	.	4B	.	.	.	4d	.	.	.
=121	=121	=121	=121	=121	=121	=121	=121	=121	=121	=121	=121
2C	-li-	4E]	.	2A	.	0r	.	4e	.	1r	.
.	.	4C	.	.	.	.	.	4f	.	.	.
2E	.	2c	.	2G	-tu-	.	.	1g	.	.	.
1D	.	1d	-sti,	1A	-li-	.	.	.	.	2r	.
.	.	.	.	.	.	.	.	2f	.	2a	Mun-
=122	=122	=122	=122	=122	=122	=122	=122	=122	=122	=122	=122
1GG	.	1r	.	1G	-sti,	0r	.	2d	.	1b	-do
.	.	.	.	.	.	.	.	1g	.	.	.
1D	-sti,]	2r	.	1r	.	.	.	.	.	1a	la-
.	.	2d	Mun-	.	.	.	.	2f#i	.	.	.
=123	=123	=123	=123	=123	=123	=123	=123	=123	=123	=123	=123
2r	.	1e	-do	0r	.	1r	.	1g	-sti,	2g	-pso
2C	Mun-	.	.	.	.	.	.	.	.	2e	con-
2D	.	2d	la-	.	.	2r	.	1r	.	2f	-tu-
2AA	-do	2c	.	.	.	2e	Mun-	.	.	[2e	-li-
=124	=124	=124	=124	=124	=124	=124	=124	=124	=124	=124	=124
1D	la-	2d	-pso	0r	.	1f	-do	1r	.	4e]	.
.	.	.	.	.	.	.	.	.	.	4d	.
.	.	2D	con-	.	.	.	.	.	.	1d	.
1AA	-pso	1E	.	.	.	1e	la-	2r	.	.	.
.	.	.	.	.	.	.	.	2A	Vi-	2c#i	.
=125	=125	=125	=125	=125	=125	=125	=125	=125	=125	=125	=125
0r	.	1G	-tu-	1r	.	2d	-pso	1B-i	.	1d	-sti,
.	.	.	.	.	.	2B	con-	.	.	.	.
.	.	1F	-li-	2r	.	2c	-tu-	2A	.	1r	.
.	.	.	.	2A	Mun-	[2A	-li-	2F	.	.	.
=126	=126	=126	=126	=126	=126	=126	=126	=126	=126	=126	=126
2r	.	2E	-sti,	1B	-do	2A]	.	2G	-tam	0r	.
2E	con-	1e	[con-	.	.	2G#i	.	1E	et	.	.
2C	.	.	.	1A	la-	1A	-sti,	.	.	.	.
2D	-tu-	2d	-tu-	.	.	.	.	2F	im-	.	.
=127	=127	=127	=127	=127	=127	=127	=127	=127	=127	=127	=127
2E	-li-	2B	-li-	2G	-pso	0r	.	2G	-pe-	0r	.
2C	.	4c	.	2E	con-	.	.	1A	.	.	.
.	.	4B	.	.	.	.	.	.	.	.	.
2D	.	4A	.	2F	-tu-	.	.	.	.	.	.
.	.	4G	.	.	.	.	.	.	.	.	.
2BB	.	[2G	.	[2D	-li-	.	.	2B	.	.	.
=128	=128	=128	=128	=128	=128	=128	=128	=128	=128	=128	=128
1AA	.	2G]	.	2D]	.	0r	.	1c	.	0r	.
.	.	2F#i	.	2C	.	.	.	.	.	.	.
[1GG	-sti,	[1G	-sti,]	1D	-sti,	.	.	2B	.	.	.
.	.	.	.	.	.	.	.	[2d	.	.	.
=129	=129	=129	=129	=129	=129	=129	=129	=129	=129	=129	=129
0GG]	.	0G]	.	0r	.	1.d	Vi-	4d]	.	2r	.
.	.	.	.	.	.	.	.	4c	.	.	.
.	.	.	.	.	.	.	.	4B	.	1g	Vi-
.	.	.	.	.	.	.	.	4A	.	.	.
.	.	.	.	.	.	.	.	2B	.	.	.
.	.	.	.	.	.	2B	-tam	[2e	.	2g	-tam
=130	=130	=130	=130	=130	=130	=130	=130	=130	=130	=130	=130
1r	.	1r	.	0r	.	2c	et	2e]	.	2e	et
.	.	.	.	.	.	2d	im-	2d	.	2f	im-
1C	Vi-	2r	.	.	.	2e	-pe-	1c	.	2.g	-pe-
.	.	[2G	Vi-	.	.	2e	-ri-	.	.	.	.
.	.	.	.	.	.	.	.	.	.	4a	.
=131	=131	=131	=131	=131	=131	=131	=131	=131	=131	=131	=131
1GG	-tam	4G]	.	1.G	Vi-	1d	-um.	2.B	.	4b	.
.	.	4F	.	.	.	.	.	.	.	4cc	.
.	.	2D	.	.	.	.	.	.	.	2dd	.
.	.	.	.	.	.	.	.	4A	.	.	.
2C	et	2E	-tam	.	.	1r	.	1G	.	2.cc	.
2C	im-	2G	et	2E	-tam	.	.	.	.	.	.
.	.	.	.	.	.	.	.	.	.	4b	.
=132	=132	=132	=132	=132	=132	=132	=132	=132	=132	=132	=132
2D	-pe-	2F	im-	2F	et	0r	.	2d	-ri-	4a	.
.	.	.	.	.	.	.	.	.	.	4b	.
2E	.	2E	.	2G	im-	.	.	2c	.	1g	-ri-
1D	-ri-	1F	-pe-	2A	-pe-	.	.	1d	-um.	.	.
.	.	.	.	2A	-ri-	.	.	.	.	2f#i	.
=133	=133	=133	=133	=133	=133	=133	=133	=133	=133	=133	=133
1.GG	-um.	1D	-ri-	1G	-um.	0r	.	2r	.	1g	-um.
.	.	.	.	.	.	.	.	1d	A-	.	.
.	.	1G	-um.	1r	.	.	.	.	.	2r	.
2GG	A-	.	.	.	.	.	.	2B	-ve,	[2g	A-
=134	=134	=134	=134	=134	=134	=134	=134	=134	=134	=134	=134
1C	-ve,	2r	.	0r	.	1r	.	1c	spon-	2g]	.
.	.	1A	A-	.	.	.	.	.	.	2e	-ve,
1D	.	.	.	.	.	1d	A-	2A	-sa	1f	spon-
.	.	2F	-ve,	.	.	.	.	[2d	ve-	.	.
=135	=135	=135	=135	=135	=135	=135	=135	=135	=135	=135	=135
1GG	spon-	1G	spon-	0r	.	1B	-ve,	2d]	.	2d	-sa
.	.	.	.	.	.	.	.	2d	-bi	1g	ver-
1C	-sa	1E	-sa	.	.	1c	spon-	1e	sum-	.	.
.	.	.	.	.	.	.	.	.	.	2e	-bi
=136	=136	=136	=136	=136	=136	=136	=136	=136	=136	=136	=136
1D	ver-	1F	ver-	1r	.	1A	-sa	0d	-mi,	1a	sum-
1GG	-bi	2D	-bi	1G	A-	2B	ver-	.	.	[1g	-mi,
.	.	[2G	sum-	.	.	2d	-bi	.	.	.	.
=137	=137	=137	=137	=137	=137	=137	=137	=137	=137	=137	=137
1C	sum-	2G]	.	1E	-ve,	1e	sum-	1r	.	1g]	.
.	.	2E	.	.	.	.	.	.	.	.	.
1D	.	1A	.	1F	spon-	[1d	-mi,	2r	.	1r	.
.	.	.	.	.	.	.	.	[2d	Ma-	.	.
=138	=138	=138	=138	=138	=138	=138	=138	=138	=138	=138	=138
1GG	-mi	0G	-mi,	1D	-sa	1d]	.	2d]	.	1g	Ma-
.	.	.	.	.	.	.	.	2B	-ris	.	.
2C	ma-	.	.	2E	ver-	1r	.	1c	por-	2g	-ris
2E	.	.	.	2G	-bi	.	.	.	.	2e	.
=139	=139	=139	=139	=139	=139	=139	=139	=139	=139	=139	=139
1D	-ris	1r	.	1A	sum-	1d	Ma-	2A	-tus,	1f	por-
.	.	.	.	.	.	.	.	1d	si-	.	.
1GG	por-	1G	Ma-	[1G	-mi,	1B	-ris	.	.	2d	-tus,
.	.	.	.	.	.	.	.	2d	-gnum	[2g	si-
=140	=140	=140	=140	=140	=140	=140	=140	=140	=140	=140	=140
1C	.	1E	-ris	1G]	.	1c	por-	1e	du-	2g]	.
.	.	.	.	.	.	.	.	.	.	2e	-gnum
1D	.	1F	por-	1r	.	1A	-tus,	[1d	.	1a	du-
=141	=141	=141	=141	=141	=141	=141	=141	=141	=141	=141	=141
1GG	-tas	2D	-tus,	1G	Ma-	2B	si-	1d]	.	1g	-mi,
.	.	1G	si-	.	.	2d	-gnum	.	.	.	.
1C	sig-	.	.	1E	-ris	1e	du-	1c	-mi,	2r	.
.	.	2E	-gnum	.	.	.	.	.	.	[2g	du-
=142	=142	=142	=142	=142	=142	=142	=142	=142	=142	=142	=142
1D	.	1A	du-	1F	por-	0d	-mi,	0r	.	2g]	.
.	.	.	.	.	.	.	.	.	.	2f#i	.
1GG	-num	1G	.	1D	-tus	.	.	.	.	1g	-mi,
=143	=143	=143	=143	=143	=143	=143	=143	=143	=143	=143	=143
1C	du-	2G	-mi,	2E	si-	0r	.	1g	A-	1r	.
.	.	1C	si-	2G	-gmun-	.	.	.	.	.	.
1FF	.	.	.	1A	-du-	.	.	1f	-ro-	[1cc	A-
.	.	2C	-gnum	.	.	.	.	.	.	.	.
=144	=144	=144	=144	=144	=144	=144	=144	=144	=144	=144	=144
1C	.	2.E	du-	0G	-mi,	1r	.	1e	-ma-	1cc]	.
.	.	4F	.	.	.	.	.	.	.	.	.
1GG	-mi,	2G	.	.	.	1g	A-	1d	-tum	1b	-ro-
.	.	[2D	.	.	.	.	.	.	.	.	.
=145	=145	=145	=145	=145	=145	=145	=145	=145	=145	=145	=145
2r	.	4D]	.	0r	.	1f	-ro-	1d	vir-	1a	-ma-
.	.	4E	.	.	.	.	.	.	.	.	.
2D	si-	2F	.	.	.	.	.	.	.	.	.
2E	-gnum	2G	.	.	.	1e	-ma-	2B	.	2g	-tum
2C	.	[2A	.	.	.	.	.	2c	.	2e	vir-
=146	=146	=146	=146	=146	=146	=146	=146	=146	=146	=146	=146
1D	du-	2A]	.	1r	.	1d	-tum	1.A	-ga	1f	-ga
.	.	2D	.	.	.	.	.	.	.	.	.
2AA	.	2.E	.	1c	A-	1r	.	.	.	1e	fu-
2C	.	.	.	.	.	.	.	[2G	fu-	.	.
.	.	4F	.	.	.	.	.	.	.	.	.
=147	=147	=147	=147	=147	=147	=147	=147	=147	=147	=147	=147
2GG	-mi,	1G	.	1B	-ro-	0r	.	4G]	.	1d	-mi,
.	.	.	.	.	.	.	.	4A	.	.	.
1G	A-	.	.	.	.	.	.	4B	.	.	.
.	.	.	.	.	.	.	.	4c	.	.	.
.	.	1D	-mi,	1A	-ma-	.	.	4d	.	2r	.
.	.	.	.	.	.	.	.	4e	.	.	.
2F	-ro-	.	.	.	.	.	.	[2d	.	2f	vir-
=148	=148	=148	=148	=148	=148	=148	=148	=148	=148	=148	=148
1E	-ma-	2r	.	1G	-tum	1r	.	2d]	.	2g	-ga
.	.	1G	A-	.	.	.	.	2c#i	.	2e	.
1D	-tum	.	.	1r	.	2r	.	1d	.	2.f	fu-
.	.	2F	-ro-	.	.	2B	vir-	.	.	.	.
.	.	.	.	.	.	.	.	.	.	4g	.
=149	=149	=149	=149	=149	=149	=149	=149	=149	=149	=149	=149
2AA	vir-	1E	-ma-	0r	.	2c	-ga	2e	.	1a	-mi,
2C	.	.	.	.	.	1A	fu-	2c	.	.	.
1BB	-ga	2.D	-tum	.	.	.	.	1d	-mi,	2r	.
.	.	.	.	.	.	2G#i	.	.	.	2dd	vir-
.	.	4E	.	.	.	.	.	.	.	.	.
=150	=150	=150	=150	=150	=150	=150	=150	=150	=150	=150	=150
2AA	fu-	4F	.	1r	.	1A	-mi,	1r	.	2cc	.
.	.	4E	.	.	.	.	.	.	.	.	.
1D	.	2F	.	.	.	.	.	.	.	2a	-ga
.	.	1E	vir-	2r	.	1r	.	2r	.	2b	fu-
2C	.	.	.	2E	vir-	.	.	[2g	An-	2cc	.
=151	=151	=151	=151	=151	=151	=151	=151	=151	=151	=151	=151
1D	.	2D	-ga	2F	-ga	1r	.	2g]	.	0a	-mi,
.	.	2.A	fu-	1D	fu-	.	.	2f	-ge-	.	.
1AA	-mi,	.	.	.	.	1e	An-	1e	-lo-	.	.
.	.	4B	.	.	.	.	.	.	.	.	.
.	.	2c	.	2C#i	.	.	.	.	.	.	.
=152	=152	=152	=152	=152	=152	=152	=152	=152	=152	=152	=152
1r	.	1A	-mi,	1D	-mi,	2f	-ge-	2d	-rum	1a	An-
.	.	.	.	.	.	2f	-lo-	2D	do-	.	.
1GG	An-	2r	.	1r	.	2e	-rum	1G	.	1b	-ge-
.	.	2D	An-	.	.	[2d	do-	.	.	.	.
=153	=153	=153	=153	=153	=153	=153	=153	=153	=153	=153	=153
2D	-ge-	2F	-ge-	1r	.	4d]	.	2F	.	2a	-lo-
.	.	.	.	.	.	4c	.	.	.	.	.
2E	-lo-	2C	-lo-	.	.	2c	-mi-	2G	.	2g	-rum
1D	.	1F	-rum	1A	An-	1d	-na.	1A	-mi-	2g	do-
.	.	.	.	.	.	.	.	.	.	2f#i	-mi-
=154	=154	=154	=154	=154	=154	=154	=154	=154	=154	=154	=154
1GG	.	2.D	do-	2B	-ge-	2r	.	1G	-na.	1g	-na.
.	.	.	.	2B	-lo-	1d	Sup-	.	.	.	.
.	.	4E	.	.	.	.	.	.	.	.	.
2D	.	2F	.	2A	-rum	.	.	1r	.	2r	.
2E	.	2G	-mi-	[2G	do-	2B	-pli-	.	.	2g	Sup-
=155	=155	=155	=155	=155	=155	=155	=155	=155	=155	=155	=155
2C	.	2A	-na.	4G]	.	2c	-ca-	2r	.	2e	-li-
.	.	.	.	4F#i	.	.	.	.	.	.	.
2D	.	2r	.	2F#i	-mi-	2A	-mus,	1d	Sup-	2f	-ca-
1GG	-rum	2G	Sup-	1G	-na.	2r	.	.	.	2d	-mus,
.	.	2E	-pli-	.	.	2B	nos	2G	-pli-	2g	nos
=156	=156	=156	=156	=156	=156	=156	=156	=156	=156	=156	=156
2D	do-	2F	-ca-	2r	.	1d	e-	2A	-ca-	2f	e-
2GG	-mi-	2D	-mus	1G	Sup-	.	.	2B	.	2.g	-men-
1C	-na.	1r	.	.	.	1e	-men-	1c	-mus,	.	.
.	.	.	.	.	.	.	.	.	.	8fL	.
.	.	.	.	.	.	.	.	.	.	8eJ	.
.	.	.	.	2E	-pli-	.	.	.	.	2g	.
=157	=157	=157	=157	=157	=157	=157	=157	=157	=157	=157	=157
2D	Sup-	2r	.	2F	-ca-	1d	-da,	2A	nos	2f	.
2BB	-pli-	2G	nos	2D	-mus	.	.	2B	.	1g	.
2C	-ca-	2E	e-	2r	.	1r	.	2G	e-	.	.
2AA	-mus,	[2C	-men-	2E	nos	.	.	[2c	-men-	[2a	.
=158	=158	=158	=158	=158	=158	=158	=158	=158	=158	=158	=158
2E	nos	4C]	.	1G	e-	0r	.	2c]	.	4a]	.
.	.	4D	.	.	.	.	.	.	.	4g	.
2E	e-	2E	.	.	.	.	.	2B	.	1g	.
1D	-men-	1F	.	1A	-men-	.	.	2.d	.	.	.
.	.	.	.	.	.	.	.	.	.	2f#i	.
.	.	.	.	.	.	.	.	4c	.	.	.
=159	=159	=159	=159	=159	=159	=159	=159	=159	=159	=159	=159
1GG	-da,	2.D	.	1G	-da,	2r	.	2B	.	1g	-da,
.	.	.	.	.	.	1d	E-	4A	.	.	.
.	.	4E	.	.	.	.	.	4G	.	.	.
2D	sup-	2F	.	1r	.	.	.	2A	.	2r	.
2E	-pli-	2G	.	.	.	2B	-men-	[2G	.	2g	E-
=160	=160	=160	=160	=160	=160	=160	=160	=160	=160	=160	=160
2C	-ca-	2A	-da,	0r	.	2c	-da-	2G]	.	2e	-men-
2D	-mus,	2r	.	.	.	2A	-tos	2F#i	.	2f	-da-
1GG	nos	2G	E-	.	.	2r	.	1G	-da,	2d	-tos
.	.	2E	-men-	.	.	2B	nos	.	.	2g	nos
=161	=161	=161	=161	=161	=161	=161	=161	=161	=161	=161	=161
2D	e-	2F	-da-	2r	.	1d	com-	2A	E-	2f	com-
2GG	-men-	2D	-tos	1G	E-	.	.	2B	-men-	2.g	-men-
2C	-da,	1r	.	.	.	1e	-men-	1c	-da-	.	.
.	.	.	.	.	.	.	.	.	.	8fL	.
.	.	.	.	.	.	.	.	.	.	8eJ	.
2r	.	.	.	2E	-men-	.	.	.	.	2g	.
=162	=162	=162	=162	=162	=162	=162	=162	=162	=162	=162	=162
2D	E-	2r	.	2F	-da-	1d	-da	2A	-tos	2f	.
2BB	-men-	2G	nos	2D	-tos	.	.	2B	nos	1g	.
2C	-da-	2E	com-	2r	.	1r	.	2G	com-	.	.
2AA	-tos	[2C	-men-	2E	nos	.	.	[2c	-men-	[2a	.
=163	=163	=163	=163	=163	=163	=163	=163	=163	=163	=163	=163
2E	nos	4C]	.	1G	com-	0r	.	2c]	.	4a]	.
.	.	4D	.	.	.	.	.	.	.	4g	.
2E	com-	2E	.	.	.	.	.	2B	.	1g	.
1D	-men-	1F	.	1A	-men-	.	.	2.d	.	.	.
.	.	.	.	.	.	.	.	.	.	2f#i	.
.	.	.	.	.	.	.	.	4c	.	.	.
=164	=164	=164	=164	=164	=164	=164	=164	=164	=164	=164	=164
2.GG	.	2D	-da	1G	-da	0r	.	1.B	.	1g	-da
.	.	1G	Tu-	.	.	.	.	.	.	.	.
4AA	.	.	.	.	.	.	.	.	.	.	.
4BB	.	.	.	1r	.	.	.	.	.	1r	.
4C	.	.	.	.	.	.	.	.	.	.	.
[2D	.	2F	-o	.	.	.	.	2A	.	.	.
=165	=165	=165	=165	=165	=165	=165	=165	=165	=165	=165	=165
2D]	.	1E	na-	0r	.	2r	.	2B	.	1r	.
2C	.	.	.	.	.	1g	Tu-	2c	.	.	.
2.D	.	2D	-tu,	.	.	.	.	2.A	.	1dd	Tu-
.	.	[2A	ad	.	.	2f	-o	.	.	.	.
4C	.	.	.	.	.	.	.	4B	.	.	.
=166	=166	=166	=166	=166	=166	=166	=166	=166	=166	=166	=166
2AA	.	4A]	.	0r	.	1e	na-	2c	.	1cc	-o
.	.	4G	.	.	.	.	.	.	.	.	.
2C	.	2E	.	.	.	.	.	1A	.	.	.
2D	.	2F	ha-	.	.	2d	-tu,	.	.	1b	na-
2E	-da	2G	.	.	.	2B	ad	2G	.	.	.
=167	=167	=167	=167	=167	=167	=167	=167	=167	=167	=167	=167
2.AA	tu-	1.E	-ben-	2r	.	2.c	ha-	2A	-da	1a	-tu,
.	.	.	.	1c	Tu-	.	.	2.e	Tu-	.	.
4BB	.	.	.	.	.	4B	.	.	.	.	.
2C	.	.	.	.	.	4A	.	.	.	1r	.
.	.	.	.	.	.	4G	.	4f	.	.	.
2GG	-o	2D	-da	2B	-o	[2d	.	2g	-o	.	.
=168	=168	=168	=168	=168	=168	=168	=168	=168	=168	=168	=168
1AA	na-	2r	.	1A	na-	2d]	.	0e	na-	1r	.
.	.	2.E	Sem-	.	.	2c	.	.	.	.	.
1E	-to	.	.	2G	-tu,	1B	-ben-	.	.	2r	.
.	.	4F	.	.	.	.	.	.	.	.	.
.	.	2G	-pi-	2E	ad	.	.	.	.	2g	ad
=169	=169	=169	=169	=169	=169	=169	=169	=169	=169	=169	=169
1r	.	1.D	-ter-	2.F	ha-	1A	-da	2d	-tu,	2.a	ha-
.	.	.	.	.	.	.	.	2.A	ad	.	.
.	.	.	.	4E	.	.	.	.	.	4g	.
2r	.	.	.	4D	.	1r	.	.	.	2f	-ben-
.	.	.	.	4C	.	.	.	4B	.	.	.
2C	ad	2E	.	[2G	.	.	.	2c	.	2e	.
=170	=170	=170	=170	=170	=170	=170	=170	=170	=170	=170	=170
1D	ha-	2.F	.	2G]	.	1r	.	2A	ha-	2d	-da
.	.	.	.	2F	.	.	.	1d	-ben-	2.a	Sem-
.	.	4G	.	.	.	.	.	.	.	.	.
1AA	-ben-	1A	.	1E	-ben-	2r	.	.	.	.	.
.	.	.	.	.	.	.	.	.	.	4b	.
.	.	.	.	.	.	2e	Sem-	2c	.	2cc	-pi-
=171	=171	=171	=171	=171	=171	=171	=171	=171	=171	=171	=171
1D	-da	2F	-na	1D	-da	2f	-pi-	1d	.	2.a	-ter-
.	.	2.A	gau-	.	.	2d	-ter-	.	.	.	.
.	.	.	.	.	.	.	.	.	.	4b	.
2r	.	.	.	1r	.	2e	-na	2c	.	2cc	.
.	.	4G	.	.	.	.	.	.	.	.	.
[2D	sem-	4F	.	.	.	[2f	gau-	2d	.	[2a	.
.	.	4E	.	.	.	.	.	.	.	.	.
=172	=172	=172	=172	=172	=172	=172	=172	=172	=172	=172	=172
2D]	.	4D	.	1r	.	4f]	.	1A	-da	4a]	.
.	.	4E	.	.	.	4e	.	.	.	4g	.
2D	-pi-	4F	.	.	.	1d	.	.	.	2f	.
.	.	4G	.	.	.	.	.	.	.	.	.
1AA	-ter-	2A	.	2r	.	.	.	1r	.	2.e	-na
.	.	2A	-di-	2A	Sem-	2c#i	-di-	.	.	.	.
.	.	.	.	.	.	.	.	.	.	4f	.
=173	=173	=173	=173	=173	=173	=173	=173	=173	=173	=173	=173
1GG	-na,	[0D	-a,	2B	-pi-	0d	-a,	2r	.	1g	.
.	.	.	.	2G	-ter-	.	.	2B	Sem-	.	.
2r	.	.	.	2A	-na	.	.	2A	.	2f	gau-
[2GG	gau-	.	.	[2B	gau-	.	.	2G	.	[2g	-di-
=174	=174	=174	=174	=174	=174	=174	=174	=174	=174	=174	=174
2GG]	.	1D]	.	4B]	.	2r	.	2.d	-pi-	4g]	.
.	.	.	.	4A	.	.	.	.	.	4a	.
2GG	.	.	.	1G	.	2.d	a-	.	.	2b	.
.	.	.	.	.	.	.	.	4e	.	.	.
1D	-di-	1r	.	.	.	.	.	1f	-ter-	2a	-a,
.	.	.	.	.	.	4c	.	.	.	.	.
.	.	.	.	2F#i	-di-	2A	.	.	.	[2dd	al-
=175	=175	=175	=175	=175	=175	=175	=175	=175	=175	=175	=175
1GG	-a	2r	.	0G	-a,	2.B	.	1d	.	4dd]	.
.	.	.	.	.	.	.	.	.	.	4cc	.
.	.	2.G	al-	.	.	.	.	.	.	4b	.
.	.	.	.	.	.	4c	.	.	.	4a	.
1GG	a-	.	.	.	.	1d	.	[1g	-na	4b	.
.	.	4F	.	.	.	.	.	.	.	4cc	.
.	.	2D	.	.	.	.	.	.	.	2dd	.
=176	=176	=176	=176	=176	=176	=176	=176	=176	=176	=176	=176
1C	-le-	2C	-le-	2r	.	2e	.	1g]	.	2g	-le-
.	.	2E	.	2.G	al-	2c	.	.	.	1cc	-lu-
1GG	.	1D	-lu-	.	.	1d	-men,	2.g	gau-	.	.
.	.	.	.	4F	.	.	.	.	.	.	.
.	.	.	.	2D	.	.	.	.	.	2b	.
.	.	.	.	.	.	.	.	4f	.	.	.
=177	=177	=177	=177	=177	=177	=177	=177	=177	=177	=177	=177
2.G	-lu-	0C	-a,	2.E	-le-	2r	.	4e	.	0cc	-a,
.	.	.	.	.	.	.	.	4d	.	.	.
.	.	.	.	.	.	1g	a-	1e	.	.	.
4F	.	.	.	4F	.	.	.	.	.	.	.
1E	.	.	.	1G	.	.	.	.	.	.	.
.	.	.	.	.	.	2e	.	2c	-di-	.	.
=178	=178	=178	=178	=178	=178	=178	=178	=178	=178	=178	=178
1D	.	1r	.	2A	-lu-	1f	.	2.d	-a	2r	.
.	.	.	.	2F	.	.	.	.	.	2a	al-
.	.	.	.	.	.	.	.	4c	.	.	.
1GG	-ia,	1D	al-	1G	-ia,	1d	.	4B	.	2b	-le-
.	.	.	.	.	.	.	.	4A	.	.	.
.	.	.	.	.	.	.	.	2B	.	2dd	-lu-
=179	=179	=179	=179	=179	=179	=179	=179	=179	=179	=179	=179
0r	.	1A	-le-	2r	.	0e	.	2.c	a-	2cc	.
.	.	.	.	1c	al-	.	.	.	.	2.a	.
.	.	.	.	.	.	.	.	4d	.	.	.
.	.	1A	-lu-	.	.	.	.	2e	.	.	.
.	.	.	.	.	.	.	.	.	.	4b	.
.	.	.	.	2A	-le-	.	.	2c	-le-	2cc	-a,
=180	=180	=180	=180	=180	=180	=180	=180	=180	=180	=180	=180
1GG	a-	1.D	-ia,	1B	-lu-	[0dl	-men.	2g	-lu-	2.dd	a-
.	.	.	.	.	.	.	.	2.G	.	.	.
.	.	.	.	.	.	.	.	.	.	4cc	.
1GG	-le-	.	.	1G	-ia,	.	.	.	.	4b	.
.	.	.	.	.	.	.	.	4A	.	4a	.
.	.	2D	al-	.	.	.	.	2B	.	[2g	.
=181	=181	=181	=181	=181	=181	=181	=181	=181	=181	=181	=181
1D	-lu-	1F	-le-	0A	a-	0d_	.	2A	-ia	2g]	.
.	.	.	.	.	.	.	.	2.d	a-	4f#i	.
.	.	.	.	.	.	.	.	.	.	4e	.
1D	-ia,	1F	-lu-	.	.	.	.	.	.	1f#i	.
.	.	.	.	.	.	.	.	4c	.	.	.
.	.	.	.	.	.	.	.	2A	.	.	.
=182	=182	=182	=182	=182	=182	=182	=182	=182	=182	=182	=182
00GGl	men.	00Dl	-ia.	00Gl	-men.	00d]	.	00Bl	-men.	00gl	-men.
==	==	==	==	==	==	==	==	==	==	==	==
*-	*-	*-	*-	*-	*-	*-	*-	*-	*-	*-	*-
!!!system-decoration: [*]
!!!RDF**kern: i = editorial accidental
!!!RDF**kern: l = terminal long
!!!ENC: Benjamin Ory
!!!END: 2021/10/7
!!!EED: Benjamin Ory
!!!EEV: 2021/10/07
!!!YEC: Copyright 2021 Benjamin Ory, All Rights Reserved
!!!ONB: Translated from MusicXML on 2021/10/07
